app/public/logos/shib.svg

<svg xmlns="http://www.w3.org/2000/svg" width="350pt" height="350pt" style="isolation:isolate" viewBox="0 0 350 350"><defs><clipPath id="a"><path d="M0 0h350v350H0z"/></clipPath></defs><g clip-path="url(#a)"><path d="M0 0h350v350H0z" style="fill:#f00401"/><path d="M250.29 180.851c-.129.685-2.143 2.743-4.158 4.243-5.915 4.329-16.502 8.359-27.261 10.287-6.13 1.115-12.259 1.286-14.102.386-1.2-.6-1.372-1.071-.943-2.615.9-3.214 3.815-6.729 8.358-10.03 2.315-1.671 11.702-7.372 16.074-9.772 7.201-3.944 13.03-6.301 16.974-6.859 1.243-.171 2.743-.214 3.215 0 .771.3 1.629 2.572 1.971 5.315.172 1.458.086 7.887-.128 9.045M149.303 195.038c-.257.515-1.543 1.072-3 1.286-1.458.215-5.915.086-8.444-.214-9.087-1.2-18.732-3.986-25.761-7.415-3.944-1.929-6.773-3.858-8.873-5.958l-1.2-1.243-.129-1.629c-.214-2.829-.171-7.287.172-8.873a11.6 11.6 0 0 1 1.328-3.772c.343-.429.343-.429 1.886-.429 1.886 0 3.472.3 6.044 1.115 5.272 1.629 13.116 5.572 22.675 11.316 7.887 4.715 10.844 7.029 13.116 10.201 1.543 1.972 2.572 4.758 2.186 5.615M209.998 254.705c0 .128-.514 2.186-1.157 4.629s-1.158 4.415-1.158 4.501c-.471.042-.9.085-1.371.042h-1.372l-1.886 4.458c-1.029 2.443-1.972 4.715-2.1 5.058l-.257.6-.9-1.457-.901-1.458v-11.873l-.342.086c-.729.171-5.916.857-8.187 1.072-9.388.943-18.818.728-28.162-.601-1.5-.214-2.786-.385-2.829-.342s0 2.786.086 6.172l.129 6.087-.729 1.114c-.386.6-.772 1.114-.772 1.157-.128.129-.557-.557-1.543-2.529-1.071-2.057-1.843-4.243-2.4-6.515l-.3-1.243-1.329.086-1.329.128-.343-1.586a46 46 0 0 1-.471-2.914l-.129-1.372-1.114-.986c-.643-.557-1.286-1.114-1.415-1.2-.214-.171-.3-.471-.3-.729v-.514l5.358.043 5.358.043.172.557.171.557 1.843.086c1.029.043 4.287.128 7.201.214l5.358.129 1.372-2.143 1.414-2.144h1.801l-.043-4.457-.043-4.458-2.358-1.029c-7.586-3.343-12.044-7.158-13.716-11.787-.343-.943-.343-1.286-.429-5.573-.042-4.243-.042-4.629.258-5.572.6-2.143 2.271-3.815 4.415-4.372.728-.214 2.657-.214 12.773-.214l11.916.043 1.329.643c1.586.771 2.314 1.328 3.215 2.528 1.028 1.372 1.328 2.444 1.328 5.058 0 3.729-.257 6.944-.643 8.23a17.7 17.7 0 0 1-2.486 4.929c-2.143 2.744-6.043 5.487-9.601 6.73l-1.029.386.043 4.5.043 4.501.943.086.943.086 1.286 1.928 1.243 1.929h5.743c3.172 0 5.959.043 6.216.086.428.086.514.043.943-.686l.514-.771h4.929c3.687-.172 4.801-.086 4.801.043"/><path d="M187.366 267.006c-.814.472-1.372.686-1.5.6-.129-.042-.729-.557-1.372-1.028l-1.157-.943-1.2 1.286c-2.615 2.829-2.701 2.957-3.472 3-1.2.129-1.458-.086-2.915-2.272-.771-1.114-1.372-2.057-1.372-2.057s-.557-.086-1.2-.129l-1.2-.128-.557 1.157-.557 1.157-.986-.3a21 21 0 0 1-2.272-.9l-1.286-.643v-2.443l11.402.043 11.402.043.042 1.157c.043 1.372.086 1.329-1.8 2.4"/><path fill="#FFF" d="M294.525 214.713c-.043-.172-.043-.472-.086-.943-10.287-1.115-39.649-1.8-66.91 20.703 0 0-8.787-40.292-49.936-40.292s-56.408 40.292-56.408 40.292c-23.061-24.818-53.923-23.018-65.067-21.389 0 .257-.043.557-.043.814-.343 6.216-.171 9.173.857 13.074 3.215 12.216 13.117 25.675 28.633 38.877 25.418 21.603 59.881 37.206 85.984 39.006 27.219 1.843 67.382-14.059 94.129-37.291a134 134 0 0 0 11.83-11.874c2.658-3.086 6.601-8.401 6.301-8.401-.086 0 0-.086.172-.171.128-.086.257-.215.171-.3-.043-.043.043-.172.171-.215.129-.043.215-.128.172-.214s0-.171.171-.214c.129-.043.172-.172.129-.257s0-.172.086-.172.171-.129.171-.214c0-.086.086-.215.172-.215s.171-.085.171-.171c.129-.343.343-.686.557-.986.643-.986 3.215-5.572 3.558-6.344 2.443-5.529 3.986-10.458 4.715-15.388.257-2.357.472-6.686.3-7.715m-107.159 52.293c-.814.472-1.372.686-1.5.6-.129-.042-.729-.557-1.372-1.028l-1.157-.943-1.2 1.286c-2.615 2.829-2.701 2.957-3.472 3-1.2.129-1.458-.086-2.915-2.272-.771-1.114-1.372-2.057-1.372-2.057s-.557-.086-1.2-.129l-1.2-.128-.557 1.157-.557 1.157-.986-.3a21 21 0 0 1-2.272-.9l-1.286-.643v-2.443l11.402.043 11.402.043.042 1.157c.043 1.372.086 1.329-1.8 2.4m21.432-7.715c-.643 2.443-1.157 4.415-1.157 4.501-.472.043-.901.085-1.372.043h-1.372l-1.843 4.5c-1.029 2.443-1.972 4.715-2.1 5.058l-.257.6-.9-1.457-.901-1.458v-11.873l-.342.086c-.729.171-5.916.857-8.187 1.072-9.388.943-18.818.728-28.162-.601-1.5-.214-2.786-.385-2.829-.342s0 2.786.086 6.172l.129 6.087-.729 1.114c-.386.6-.772 1.114-.772 1.157-.128.129-.557-.557-1.543-2.529-1.071-2.057-1.843-4.243-2.4-6.515l-.3-1.243-1.329.086-1.329.128-.343-1.586a46 46 0 0 1-.471-2.914l-.129-1.372-1.114-.986c-.643-.557-1.286-1.114-1.415-1.2-.214-.171-.3-.471-.3-.729v-.514l5.358.043 5.358.043.172.557.171.557 1.843.086c1.029.043 4.287.128 7.201.214l5.358.129 1.372-2.143 1.414-2.144h1.801l-.043-4.457-.043-4.458-2.358-1.029c-7.586-3.343-12.044-7.158-13.716-11.787-.343-.943-.343-1.286-.429-5.573-.042-4.243-.042-4.629.258-5.572.6-2.143 2.271-3.815 4.415-4.372.728-.214 2.657-.214 12.773-.214l11.916.043 1.329.643c1.586.771 2.314 1.328 3.215 2.528 1.028 1.372 1.328 2.444 1.328 5.058 0 3.729-.257 6.944-.643 8.23a17.7 17.7 0 0 1-2.486 4.929c-2.143 2.744-6.043 5.487-9.601 6.73l-1.029.386.043 4.5.043 4.501.943.086.943.086 1.286 1.928 1.243 1.929h5.743c3.172 0 5.959.043 6.216.086.428.086.514.043.943-.686l.514-.771h4.929c3.815 0 4.93.043 4.93.171-.129-.043-.686 2.058-1.329 4.458"/><path fill="none" d="M56.032 213.084c-2.7.386-4.286.814-4.286.814M298.254 214.327s-1.371-.3-3.815-.557"/><path fill="#FFA409" d="M294.182 210.341c-.086-1.929-.257-4.629-.386-5.958-1.843-19.46-6.815-35.363-16.245-52.208-.386-.643-.729-1.286-.943-1.8-.086-.129-.129-.258-.171-.343 1.328-3.987 6.772-20.66 11.101-39.735 5.873-25.889 9.602-56.151-1.8-65.238 0 0-19.717-1.457-46.121 24.432a177 177 0 0 0-19.546 23.189l-1.843-.6a133.8 133.8 0 0 0-32.748-6.344c-3.343-.257-15.817-.257-19.889 0-12.301.815-21.731 2.658-32.447 6.387-.429.172-.815.3-1.2.429-6.044-8.23-12.774-15.946-20.189-23.018-27.476-26.018-47.922-24.518-47.922-24.518-12.087 9.387-7.972 41.02-1.714 67.767 4.115 17.703 9.173 33.262 11.059 38.878-.129.3-.3.643-.472.943-9.987 20.231-15.388 39.734-16.674 60.48 11.188-1.629 42.006-3.472 65.11 21.389 0 0 15.259-40.292 56.408-40.292s49.936 40.292 49.936 40.292c27.262-22.503 56.623-21.775 66.91-20.703-.042-.857-.128-2.143-.214-3.429m-212.903-74.84S65.248 95.424 69.363 72.534c.686-3.857 1.971-7.244 3.986-9.815 0 0 18.174 1.8 47.493 34.376 0 0-5.572 2.701-13.031 8.444 0 0-.043.043-.085.043-8.102 6.215-18.475 16.074-26.447 29.919m68.024 59.537c-.257.515-1.543 1.072-3 1.286-1.458.215-5.915.086-8.444-.214-9.087-1.2-18.732-3.986-25.761-7.415-3.944-1.929-6.773-3.858-8.873-5.958l-1.2-1.243-.129-1.629c-.214-2.829-.171-7.287.172-8.873a11.6 11.6 0 0 1 1.328-3.772c.343-.429.343-.429 1.886-.429 1.886 0 3.472.3 6.044 1.115 5.272 1.629 13.116 5.572 22.675 11.316 7.887 4.715 10.844 7.029 13.116 10.201 1.543 1.972 2.572 4.758 2.186 5.615m100.987-14.187c-.129.685-2.143 2.743-4.158 4.243-5.915 4.329-16.502 8.359-27.261 10.287-6.13 1.115-12.259 1.286-14.102.386-1.2-.6-1.372-1.071-.943-2.615.9-3.214 3.815-6.729 8.358-10.03 2.315-1.671 11.702-7.372 16.074-9.772 7.201-3.944 13.03-6.301 16.974-6.859 1.243-.171 2.743-.214 3.215 0 .771.3 1.629 2.572 1.971 5.315.172 1.458.086 7.887-.128 9.045m-7.116-75.312-.085-.042c-7.201-5.744-12.602-8.445-12.602-8.445 28.333-32.576 45.864-34.376 45.864-34.376 1.929 2.614 3.172 5.958 3.858 9.816 3.986 22.889-11.488 63.009-11.488 63.009a102.1 102.1 0 0 0-25.547-29.962"/><path fill="none" d="M220.028 92.68c-.086.086-.128.215-.214.3M276.394 149.989c-.215.6-.3.9-.3.9"/><path fill="#FF9300" d="M280.251 72.492c-3.343-.429-19.16-.515-37.077 33.047l-.085-.042c-7.201-5.744-12.602-8.445-12.602-8.445 28.333-32.576 45.864-34.376 45.864-34.376 1.972 2.614 3.215 5.958 3.9 9.816"/><path fill="#FF8300" d="M268.764 135.501c-6.515-11.573-15.174-21.732-25.59-29.962 17.917-33.562 33.691-33.476 37.077-33.047 3.987 22.932-11.487 63.009-11.487 63.009M280.894 72.62l-.643-.128z"/><path fill="none" d="M133.229 94.352c-.428-.6-.9-1.2-1.328-1.8M73.178 151.661c.471 1.457.771 2.228.771 2.228"/><path fill="#FF9300" d="M120.842 97.052s-5.572 2.701-13.031 8.445c0 0-.043.042-.085.042-18.56-33.605-34.891-33.476-38.406-33.047.686-3.858 1.972-7.244 3.986-9.816.043 0 18.217 1.8 47.536 34.376"/><path fill="#FF8300" d="M107.768 105.539c-8.144 6.258-18.517 16.074-26.489 29.962 0 0-16.031-40.077-11.916-63.009 3.472-.429 19.846-.515 38.405 33.047M69.363 72.492c-.215.042-.472.085-.686.128z"/><path fill="#FFF" d="M225.386 157.747s-13.716.857-12.002-9.858c1.715-10.716 12.431-12.002 15.431-11.574s15.002 4.715 12.859 13.717c-2.143 9.001-5.143 7.287-6.858 7.715-1.714.429-9.43 0-9.43 0M124.228 157.747s-13.716.857-12.002-9.858c1.715-10.716 12.431-12.002 15.431-11.574s15.002 4.715 12.859 13.717c-2.143 9.001-5.143 7.287-6.858 7.715-1.714.429-9.43 0-9.43 0"/></g></svg>

<?xml version="1.0" encoding="UTF-8" standalone="no"?><!-- Generator: Gravit.io --><svg xmlns="http://www.w3.org/2000/svg" xmlns:xlink="http://www.w3.org/1999/xlink" style="isolation:isolate" viewBox="0 0 350 350" width="350pt" height="350pt"><defs><clipPath id="_clipPath_i0UvfOoMVx4ZGyOdOkxfcnlr6bLDqccm"><rect width="350" height="350"/></clipPath></defs><g clip-path="url(#_clipPath_i0UvfOoMVx4ZGyOdOkxfcnlr6bLDqccm)"><rect width="350" height="350" style="fill:rgb(240,4,1)"/><g><g><path d=" M 250.29 180.851 C 250.161 181.536 248.147 183.594 246.132 185.094 C 240.217 189.423 229.63 193.453 218.871 195.381 C 212.741 196.496 206.612 196.667 204.769 195.767 C 203.569 195.167 203.397 194.696 203.826 193.152 C 204.726 189.938 207.641 186.423 212.184 183.122 C 214.499 181.451 223.886 175.75 228.258 173.35 C 235.459 169.406 241.288 167.049 245.232 166.491 C 246.475 166.32 247.975 166.277 248.447 166.491 C 249.218 166.791 250.076 169.063 250.418 171.806 C 250.59 173.264 250.504 179.693 250.29 180.851 Z " fill="rgb(0,0,0)"/><path d=" M 149.303 195.038 C 149.046 195.553 147.76 196.11 146.303 196.324 C 144.845 196.539 140.388 196.41 137.859 196.11 C 128.772 194.91 119.127 192.124 112.098 188.695 C 108.154 186.766 105.325 184.837 103.225 182.737 L 102.025 181.494 L 101.896 179.865 C 101.682 177.036 101.725 172.578 102.068 170.992 C 102.282 169.663 102.753 168.377 103.396 167.22 C 103.739 166.791 103.739 166.791 105.282 166.791 C 107.168 166.791 108.754 167.091 111.326 167.906 C 116.598 169.535 124.442 173.478 134.001 179.222 C 141.888 183.937 144.845 186.251 147.117 189.423 C 148.66 191.395 149.689 194.181 149.303 195.038 Z " fill="rgb(0,0,0)"/><path d=" M 209.998 254.705 C 209.998 254.833 209.484 256.891 208.841 259.334 C 208.198 261.777 207.683 263.749 207.683 263.835 C 207.212 263.877 206.783 263.92 206.312 263.877 L 204.94 263.877 L 203.054 268.335 C 202.025 270.778 201.082 273.05 200.954 273.393 L 200.697 273.993 L 199.797 272.536 L 198.896 271.078 L 198.896 259.205 L 198.554 259.291 C 197.825 259.462 192.638 260.148 190.367 260.363 C 180.979 261.306 171.549 261.091 162.205 259.762 C 160.705 259.548 159.419 259.377 159.376 259.42 C 159.333 259.462 159.376 262.206 159.462 265.592 L 159.591 271.679 L 158.862 272.793 C 158.476 273.393 158.09 273.907 158.09 273.95 C 157.962 274.079 157.533 273.393 156.547 271.421 C 155.476 269.364 154.704 267.178 154.147 264.906 L 153.847 263.663 L 152.518 263.749 L 151.189 263.877 L 150.846 262.291 C 150.675 261.434 150.461 260.105 150.375 259.377 L 150.246 258.005 L 149.132 257.019 C 148.489 256.462 147.846 255.905 147.717 255.819 C 147.503 255.648 147.417 255.348 147.417 255.09 L 147.417 254.576 L 152.775 254.619 L 158.133 254.662 L 158.305 255.219 L 158.476 255.776 L 160.319 255.862 C 161.348 255.905 164.606 255.99 167.52 256.076 L 172.878 256.205 L 174.25 254.062 L 175.664 251.918 L 177.465 251.918 L 177.422 247.461 L 177.379 243.003 L 175.021 241.974 C 167.435 238.631 162.977 234.816 161.305 230.187 C 160.962 229.244 160.962 228.901 160.876 224.614 C 160.834 220.371 160.834 219.985 161.134 219.042 C 161.734 216.899 163.405 215.227 165.549 214.67 C 166.277 214.456 168.206 214.456 178.322 214.456 L 190.238 214.499 L 191.567 215.142 C 193.153 215.913 193.881 216.47 194.782 217.67 C 195.81 219.042 196.11 220.114 196.11 222.728 C 196.11 226.457 195.853 229.672 195.467 230.958 C 194.91 232.716 194.053 234.387 192.981 235.887 C 190.838 238.631 186.938 241.374 183.38 242.617 L 182.351 243.003 L 182.394 247.503 L 182.437 252.004 L 183.38 252.09 L 184.323 252.176 L 185.609 254.104 L 186.852 256.033 L 192.595 256.033 C 195.767 256.033 198.554 256.076 198.811 256.119 C 199.239 256.205 199.325 256.162 199.754 255.433 L 200.268 254.662 L 205.197 254.662 C 208.884 254.49 209.998 254.576 209.998 254.705 Z " fill="rgb(0,0,0)"/><path d=" M 187.366 267.006 C 186.552 267.478 185.994 267.692 185.866 267.606 C 185.737 267.564 185.137 267.049 184.494 266.578 L 183.337 265.635 L 182.137 266.921 C 179.522 269.75 179.436 269.878 178.665 269.921 C 177.465 270.05 177.207 269.835 175.75 267.649 C 174.979 266.535 174.378 265.592 174.378 265.592 C 174.378 265.592 173.821 265.506 173.178 265.463 L 171.978 265.335 L 171.421 266.492 L 170.864 267.649 L 169.878 267.349 C 169.106 267.092 168.335 266.792 167.606 266.449 L 166.32 265.806 L 166.32 263.363 L 177.722 263.406 L 189.124 263.449 L 189.166 264.606 C 189.209 265.978 189.252 265.935 187.366 267.006 Z " fill="rgb(0,0,0)"/></g><path d=" M 294.525 214.713 C 294.482 214.541 294.482 214.241 294.439 213.77 C 284.152 212.655 254.79 211.97 227.529 234.473 C 227.529 234.473 218.742 194.181 177.593 194.181 C 136.444 194.181 121.185 234.473 121.185 234.473 C 98.124 209.655 67.262 211.455 56.118 213.084 C 56.118 213.341 56.075 213.641 56.075 213.898 C 55.732 220.114 55.904 223.071 56.932 226.972 C 60.147 239.188 70.049 252.647 85.565 265.849 C 110.983 287.452 145.446 303.055 171.549 304.855 C 198.768 306.698 238.931 290.796 265.678 267.564 C 269.879 263.835 273.822 259.891 277.508 255.69 C 280.166 252.604 284.109 247.289 283.809 247.289 C 283.723 247.289 283.809 247.203 283.981 247.118 C 284.109 247.032 284.238 246.903 284.152 246.818 C 284.109 246.775 284.195 246.646 284.323 246.603 C 284.452 246.56 284.538 246.475 284.495 246.389 C 284.452 246.303 284.495 246.218 284.666 246.175 C 284.795 246.132 284.838 246.003 284.795 245.918 C 284.752 245.832 284.795 245.746 284.881 245.746 C 284.966 245.746 285.052 245.617 285.052 245.532 C 285.052 245.446 285.138 245.317 285.224 245.317 C 285.309 245.317 285.395 245.232 285.395 245.146 C 285.524 244.803 285.738 244.46 285.952 244.16 C 286.595 243.174 289.167 238.588 289.51 237.816 C 291.953 232.287 293.496 227.358 294.225 222.428 C 294.482 220.071 294.697 215.742 294.525 214.713 Z  M 187.366 267.006 C 186.552 267.478 185.994 267.692 185.866 267.606 C 185.737 267.564 185.137 267.049 184.494 266.578 L 183.337 265.635 L 182.137 266.921 C 179.522 269.75 179.436 269.878 178.665 269.921 C 177.465 270.05 177.207 269.835 175.75 267.649 C 174.979 266.535 174.378 265.592 174.378 265.592 C 174.378 265.592 173.821 265.506 173.178 265.463 L 171.978 265.335 L 171.421 266.492 L 170.864 267.649 L 169.878 267.349 C 169.106 267.092 168.335 266.792 167.606 266.449 L 166.32 265.806 L 166.32 263.363 L 177.722 263.406 L 189.124 263.449 L 189.166 264.606 C 189.209 265.978 189.252 265.935 187.366 267.006 Z  M 208.798 259.291 C 208.155 261.734 207.641 263.706 207.641 263.792 C 207.169 263.835 206.74 263.877 206.269 263.835 L 204.897 263.835 L 203.054 268.335 C 202.025 270.778 201.082 273.05 200.954 273.393 L 200.697 273.993 L 199.797 272.536 L 198.896 271.078 L 198.896 259.205 L 198.554 259.291 C 197.825 259.462 192.638 260.148 190.367 260.363 C 180.979 261.306 171.549 261.091 162.205 259.762 C 160.705 259.548 159.419 259.377 159.376 259.42 C 159.333 259.462 159.376 262.206 159.462 265.592 L 159.591 271.679 L 158.862 272.793 C 158.476 273.393 158.09 273.907 158.09 273.95 C 157.962 274.079 157.533 273.393 156.547 271.421 C 155.476 269.364 154.704 267.178 154.147 264.906 L 153.847 263.663 L 152.518 263.749 L 151.189 263.877 L 150.846 262.291 C 150.675 261.434 150.461 260.105 150.375 259.377 L 150.246 258.005 L 149.132 257.019 C 148.489 256.462 147.846 255.905 147.717 255.819 C 147.503 255.648 147.417 255.348 147.417 255.09 L 147.417 254.576 L 152.775 254.619 L 158.133 254.662 L 158.305 255.219 L 158.476 255.776 L 160.319 255.862 C 161.348 255.905 164.606 255.99 167.52 256.076 L 172.878 256.205 L 174.25 254.062 L 175.664 251.918 L 177.465 251.918 L 177.422 247.461 L 177.379 243.003 L 175.021 241.974 C 167.435 238.631 162.977 234.816 161.305 230.187 C 160.962 229.244 160.962 228.901 160.876 224.614 C 160.834 220.371 160.834 219.985 161.134 219.042 C 161.734 216.899 163.405 215.227 165.549 214.67 C 166.277 214.456 168.206 214.456 178.322 214.456 L 190.238 214.499 L 191.567 215.142 C 193.153 215.913 193.881 216.47 194.782 217.67 C 195.81 219.042 196.11 220.114 196.11 222.728 C 196.11 226.457 195.853 229.672 195.467 230.958 C 194.91 232.716 194.053 234.387 192.981 235.887 C 190.838 238.631 186.938 241.374 183.38 242.617 L 182.351 243.003 L 182.394 247.503 L 182.437 252.004 L 183.38 252.09 L 184.323 252.176 L 185.609 254.104 L 186.852 256.033 L 192.595 256.033 C 195.767 256.033 198.554 256.076 198.811 256.119 C 199.239 256.205 199.325 256.162 199.754 255.433 L 200.268 254.662 L 205.197 254.662 C 209.012 254.662 210.127 254.705 210.127 254.833 C 209.998 254.79 209.441 256.891 208.798 259.291 Z " fill="rgb(255,255,255)"/><path d=" M 56.032 213.084 C 53.332 213.47 51.746 213.898 51.746 213.898" fill="none"/><path d=" M 298.254 214.327 C 298.254 214.327 296.883 214.027 294.439 213.77" fill="none"/><path d=" M 294.182 210.341 C 294.096 208.412 293.925 205.712 293.796 204.383 C 291.953 184.923 286.981 169.02 277.551 152.175 C 277.165 151.532 276.822 150.889 276.608 150.375 C 276.522 150.246 276.479 150.117 276.437 150.032 L 276.437 150.032 C 277.765 146.045 283.209 129.372 287.538 110.297 C 293.411 84.408 297.14 54.146 285.738 45.059 C 285.738 45.059 266.021 43.602 239.617 69.491 C 232.459 76.649 225.901 84.408 220.071 92.68 L 218.228 92.08 C 207.598 88.608 196.582 86.465 185.48 85.736 C 182.137 85.479 169.663 85.479 165.591 85.736 C 153.29 86.551 143.86 88.394 133.144 92.123 C 132.715 92.295 132.329 92.423 131.944 92.552 C 125.9 84.322 119.17 76.606 111.755 69.534 C 84.279 43.516 63.833 45.016 63.833 45.016 C 51.746 54.403 55.861 86.036 62.119 112.783 C 66.234 130.486 71.292 146.045 73.178 151.661 C 73.049 151.961 72.878 152.304 72.706 152.604 C 62.719 172.835 57.318 192.338 56.032 213.084 C 67.22 211.455 98.038 209.612 121.142 234.473 C 121.142 234.473 136.401 194.181 177.55 194.181 C 218.699 194.181 227.486 234.473 227.486 234.473 C 254.748 211.97 284.109 212.698 294.396 213.77 C 294.354 212.913 294.268 211.627 294.182 210.341 Z  M 81.279 135.501 C 81.279 135.501 65.248 95.424 69.363 72.534 C 69.363 72.534 69.363 72.534 69.363 72.534 C 70.049 68.677 71.334 65.29 73.349 62.719 C 73.349 62.719 91.523 64.519 120.842 97.095 C 120.842 97.095 115.27 99.796 107.811 105.539 C 107.811 105.539 107.768 105.582 107.726 105.582 C 99.624 111.797 89.251 121.656 81.279 135.501 L 81.279 135.501 Z  M 149.303 195.038 C 149.046 195.553 147.76 196.11 146.303 196.324 C 144.845 196.539 140.388 196.41 137.859 196.11 C 128.772 194.91 119.127 192.124 112.098 188.695 C 108.154 186.766 105.325 184.837 103.225 182.737 L 102.025 181.494 L 101.896 179.865 C 101.682 177.036 101.725 172.578 102.068 170.992 C 102.282 169.663 102.753 168.377 103.396 167.22 C 103.739 166.791 103.739 166.791 105.282 166.791 C 107.168 166.791 108.754 167.091 111.326 167.906 C 116.598 169.535 124.442 173.478 134.001 179.222 C 141.888 183.937 144.845 186.251 147.117 189.423 C 148.66 191.395 149.689 194.181 149.303 195.038 Z  M 250.29 180.851 C 250.161 181.536 248.147 183.594 246.132 185.094 C 240.217 189.423 229.63 193.453 218.871 195.381 C 212.741 196.496 206.612 196.667 204.769 195.767 C 203.569 195.167 203.397 194.696 203.826 193.152 C 204.726 189.938 207.641 186.423 212.184 183.122 C 214.499 181.451 223.886 175.75 228.258 173.35 C 235.459 169.406 241.288 167.049 245.232 166.491 C 246.475 166.32 247.975 166.277 248.447 166.491 C 249.218 166.791 250.076 169.063 250.418 171.806 C 250.59 173.264 250.504 179.693 250.29 180.851 Z  M 243.174 105.539 L 243.089 105.497 C 235.888 99.753 230.487 97.052 230.487 97.052 C 258.82 64.476 276.351 62.676 276.351 62.676 C 278.28 65.29 279.523 68.634 280.209 72.492 C 280.209 72.492 280.209 72.492 280.209 72.492 C 284.195 95.381 268.721 135.501 268.721 135.501 C 262.249 123.971 253.547 113.769 243.174 105.539 L 243.174 105.539 Z " fill="rgb(255,164,9)"/><path d=" M 220.028 92.68 C 219.942 92.766 219.9 92.895 219.814 92.98" fill="none"/><path d=" M 276.394 149.989 C 276.179 150.589 276.094 150.889 276.094 150.889" fill="none"/><g><g><g><path d=" M 280.251 72.492 C 276.908 72.063 261.091 71.977 243.174 105.539 L 243.089 105.497 C 235.888 99.753 230.487 97.052 230.487 97.052 C 258.82 64.476 276.351 62.676 276.351 62.676 C 278.323 65.29 279.566 68.634 280.251 72.492 Z " fill="rgb(255,147,0)"/></g><path d=" M 268.764 135.501 C 262.249 123.928 253.59 113.769 243.174 105.539 C 261.091 71.977 276.865 72.063 280.251 72.492 C 280.251 72.492 280.251 72.492 280.251 72.492 C 284.238 95.424 268.764 135.501 268.764 135.501 Z " fill="rgb(255,131,0)"/><path d=" M 280.894 72.62 C 280.68 72.577 280.466 72.534 280.251 72.492 L 280.894 72.62 Z " fill="rgb(255,131,0)"/></g></g><path d=" M 133.229 94.352 C 132.801 93.752 132.329 93.152 131.901 92.552" fill="none"/><path d=" M 73.178 151.661 C 73.649 153.118 73.949 153.889 73.949 153.889" fill="none"/><g><g><g><path d=" M 120.842 97.052 C 120.842 97.052 115.27 99.753 107.811 105.497 C 107.811 105.497 107.768 105.539 107.726 105.539 C 89.166 71.934 72.835 72.063 69.32 72.492 C 70.006 68.634 71.292 65.248 73.306 62.676 C 73.349 62.676 91.523 64.476 120.842 97.052 Z " fill="rgb(255,147,0)"/></g><path d=" M 107.768 105.539 C 99.624 111.797 89.251 121.613 81.279 135.501 C 81.279 135.501 65.248 95.424 69.363 72.492 C 69.363 72.492 69.363 72.492 69.363 72.492 C 72.835 72.063 89.209 71.977 107.768 105.539 Z " fill="rgb(255,131,0)"/><path d=" M 69.363 72.492 C 69.148 72.534 68.891 72.577 68.677 72.62 L 69.363 72.492 Z " fill="rgb(255,131,0)"/></g></g><path d=" M 225.386 157.747 C 225.386 157.747 211.67 158.604 213.384 147.889 C 215.099 137.173 225.815 135.887 228.815 136.315 C 231.816 136.744 243.817 141.03 241.674 150.032 C 239.531 159.033 236.531 157.319 234.816 157.747 C 233.102 158.176 225.386 157.747 225.386 157.747 Z " fill="rgb(255,255,255)"/><path d=" M 124.228 157.747 C 124.228 157.747 110.512 158.604 112.226 147.889 C 113.941 137.173 124.657 135.887 127.657 136.315 C 130.658 136.744 142.659 141.03 140.516 150.032 C 138.373 159.033 135.373 157.319 133.658 157.747 C 131.944 158.176 124.228 157.747 124.228 157.747 Z " fill="rgb(255,255,255)"/></g></g></svg>
